X:70
T:Saffron and Blue
R:Reel
M:4/4
L:1/8
C:Manus McGuire
Z:alf.warnock@rogers.com
K:G
DF|:GBdg bagf|gdBe d/e/d BG|FGAB cBce|agfe fdcA|
GBdg bagf|gdBe d/e/d BG|FGAB cAFG|[1 AGGF G2DF:|[2 AGGF G2z|
B|AF (3FFF Adcd|BGBd g2ag|fgag fdcA|d/e/dcd AdFd|
AF (3FFF CDA,A|BGBd g2ag|fgag fdcA| FGAB BGG:|"Coda" FDCA, G,4|]
